src/assets/img/venusLogoPure.svg

<svg
        width="38"
        height="34"
        viewBox="0 0 38 34"
        fill="none"
        xmlns="http://www.w3.org/2000/svg"
>
    <path
            d="M37.0945 7.07724L23.3875 30.8188C22.9731 31.5348 22.3776 32.1293 21.6609 32.5425C20.9442 32.9558 20.1315 33.1733 19.3042 33.1733C18.4768 33.1733 17.6641 32.9558 16.9474 32.5425C16.2307 32.1293 15.6352 31.5348 15.2208 30.8188L12.8179 26.66C12.8102 26.6497 12.8068 26.6367 12.8087 26.624C12.8105 26.6112 12.8173 26.5997 12.8276 26.5919C12.8379 26.5842 12.8509 26.5809 12.8637 26.5827C12.8765 26.5845 12.888 26.5913 12.8957 26.6017C13.3244 27.0248 13.8441 27.3443 14.4152 27.5357C14.9863 27.7271 15.5936 27.7854 16.1906 27.7061C16.7877 27.6268 17.3587 27.4119 17.86 27.078C18.3613 26.7441 18.7796 26.3 19.0828 25.7796L30.5572 5.88554C30.8597 5.3603 31.0373 4.77249 31.0761 4.16762C31.115 3.56274 31.0142 2.95704 30.7814 2.3974C30.5486 1.83776 30.1901 1.33921 29.7337 0.940353C29.2773 0.541492 28.7353 0.253024 28.1495 0.0972845C28.1366 0.0972845 28.1242 0.0921598 28.1151 0.0830379C28.106 0.073916 28.1008 0.061544 28.1008 0.0486437C28.1008 0.0357433 28.106 0.0233714 28.1151 0.0142495C28.1242 0.00512753 28.1366 2.89211e-06 28.1495 2.89211e-06H33.0136C33.8413 0.000894092 34.6543 0.219552 35.3709 0.63402C36.0874 1.04849 36.6823 1.64418 37.0958 2.36128C37.5093 3.07838 37.7269 3.89165 37.7266 4.71943C37.7264 5.54721 37.5084 6.36036 37.0945 7.07724ZM20.868 2.89211e-06H16.1157C16.106 0.00320148 16.0975 0.00939074 16.0915 0.0176883C16.0855 0.0259858 16.0823 0.035968 16.0823 0.0462116C16.0823 0.0564553 16.0855 0.0664375 16.0915 0.074735C16.0975 0.0830326 16.106 0.0892218 16.1157 0.0924204C16.4358 0.216049 16.7254 0.40733 16.9648 0.653186C17.2041 0.899043 17.3876 1.19368 17.5025 1.51696C17.6175 1.84023 17.6614 2.18453 17.6311 2.5263C17.6008 2.86808 17.497 3.19929 17.3269 3.49728L10.4005 15.4775C10.2215 15.7813 9.9775 16.0417 9.68598 16.24C9.39445 16.4383 9.06263 16.5696 8.71434 16.6245C8.36606 16.6794 8.00994 16.6564 7.67157 16.5574C7.33319 16.4583 7.02095 16.2855 6.75726 16.0515C6.74952 16.0411 6.73799 16.0343 6.72522 16.0325C6.71245 16.0307 6.69948 16.034 6.68916 16.0417C6.67884 16.0495 6.67202 16.061 6.67019 16.0738C6.66837 16.0865 6.67169 16.0995 6.67943 16.1098L9.11147 20.3319C9.38454 20.8056 9.77759 21.1992 10.2511 21.4728C10.7246 21.7464 11.2618 21.8904 11.8086 21.8904C12.3555 21.8904 12.8927 21.7464 13.3661 21.4728C13.8396 21.1992 14.2327 20.8056 14.5057 20.3319L23.5675 4.66952C23.8409 4.19602 23.9847 3.65886 23.9846 3.11211C23.9844 2.56535 23.8403 2.02829 23.5666 1.55494C23.293 1.0816 22.8995 0.688674 22.4257 0.415709C21.952 0.142745 21.4147 -0.000632703 20.868 2.89211e-06ZM4.37386 2.89211e-06C3.56287 2.89211e-06 2.7701 0.240488 2.09579 0.691048C1.42148 1.14161 0.895916 1.78201 0.585565 2.53126C0.275214 3.28051 0.194012 4.10497 0.352228 4.90037C0.510443 5.69578 0.90097 6.4264 1.47442 6.99986C2.04788 7.57331 2.7785 7.96384 3.57391 8.12205C4.36931 8.28027 5.19377 8.19907 5.94302 7.88871C6.69227 7.57836 7.33267 7.0528 7.78323 6.37849C8.23379 5.70418 8.47428 4.91141 8.47428 4.10042C8.47492 3.56177 8.36929 3.02828 8.16346 2.5305C7.95762 2.03273 7.65561 1.58045 7.27472 1.19956C6.89383 0.818674 6.44155 0.516664 5.94378 0.310825C5.446 0.104986 4.91251 -0.000637221 4.37386 2.89211e-06Z"
            fill="url(#paint0_linear_615_2035)"
    />
    <defs>
        <linearGradient
                id="paint0_linear_615_2035"
                x1="37.2475"
                y1="26.2516"
                x2="-5.57766"
                y2="-2.83053"
                gradientUnits="userSpaceOnUse"
        >
            <stop stop-color="#5433FF" />
            <stop offset="0.5" stop-color="#20BDFF" />
            <stop offset="1" stop-color="#5CFFA2" />
        </linearGradient>
    </defs>
</svg>

<svg xmlns="http://www.w3.org/2000/svg" width="38" height="34" fill="none" xmlns:v="https://vecta.io/nano"><path d="M37.095 7.077L23.388 30.819c-.414.716-1.01 1.311-1.727 1.724s-1.529.631-2.357.631-1.64-.217-2.357-.631-1.312-1.008-1.727-1.724l-2.403-4.159c-.008-.01-.011-.023-.009-.036s.009-.024.019-.032.023-.011.036-.009.024.009.032.019a3.95 3.95 0 0 0 3.295 1.104 3.95 3.95 0 0 0 2.892-1.927L30.557 5.886a3.95 3.95 0 0 0 .224-3.488 3.95 3.95 0 0 0-2.632-2.3c-.013 0-.025-.005-.034-.014s-.014-.021-.014-.034.005-.025.014-.034S28.137 0 28.15 0h4.864a4.72 4.72 0 0 1 4.082 2.361c.414.717.631 1.53.631 2.358a4.72 4.72 0 0 1-.632 2.358zM20.868 0h-4.752c-.01.003-.018.009-.024.018s-.009.018-.009.029.003.02.009.029.015.014.024.018c.32.124.61.315.849.561s.423.54.538.864.159.668.129 1.009-.134.673-.304.971l-6.926 11.98a2.39 2.39 0 0 1-1.686 1.147 2.39 2.39 0 0 1-1.957-.573c-.008-.01-.019-.017-.032-.019s-.026.002-.036.009-.017.019-.019.032.002.026.009.036l2.432 4.222c.273.474.666.867 1.14 1.141s1.011.418 1.558.418 1.084-.144 1.557-.418.867-.667 1.14-1.141L23.568 4.67c.273-.474.417-1.011.417-1.557s-.144-1.084-.418-1.557A3.11 3.11 0 0 0 22.426.416C21.952.143 21.415-.001 20.868 0zM4.374 0A4.1 4.1 0 0 0 .586 2.531 4.1 4.1 0 0 0 1.474 7a4.1 4.1 0 0 0 4.469.889A4.1 4.1 0 0 0 8.474 4.1c.001-.539-.105-1.072-.311-1.57s-.508-.95-.889-1.331S6.442.517 5.944.311 4.913-.001 4.374 0z" fill="url(#A)"/><defs><linearGradient id="A" x1="37.248" y1="26.252" x2="-5.578" y2="-2.831" gradientUnits="userSpaceOnUse"><stop stop-color="#5433ff"/><stop offset=".5" stop-color="#20bdff"/><stop offset="1" stop-color="#5cffa2"/></linearGradient></defs></svg>
